fa/svgs/solid/sd-card.svg

<svg xmlns="http://www.w3.org/2000/svg" viewBox="0 0 384 512"><!-- Font Awesome Free 5.15.4 by @fontawesome - https://fontawesome.com License - https://fontawesome.com/license/free (Icons: CC BY 4.0, Fonts: SIL OFL 1.1, Code: MIT License) --><path d="M320 0H128L0 128v320c0 35.3 28.7 64 64 64h256c35.3 0 64-28.7 64-64V64c0-35.3-28.7-64-64-64zM160 160h-48V64h48v96zm80 0h-48V64h48v96zm80 0h-48V64h48v96z"/></svg>

<svg xmlns="http://www.w3.org/2000/svg" viewBox="0 0 384 512"><!--! Font Awesome Free 6.0.0 by @fontawesome - https://fontawesome.com License - https://fontawesome.com/license/free (Icons: CC BY 4.0, Fonts: SIL OFL 1.1, Code: MIT License) Copyright 2022 Fonticons, Inc. --><path d="M320 0H128L0 128v320c0 35.25 28.75 64 64 64h256c35.25 0 64-28.75 64-64V64C384 28.75 355.3 0 320 0zM160 160H112V64H160V160zM240 160H192V64h48V160zM320 160h-48V64H320V160z"/></svg>
